Newaita/actions/32/draw-triangle3.svg

<svg height="32" viewBox="0 0 32 32" width="32" xmlns="http://www.w3.org/2000/svg"><path d="m15.8125 5.550781c-.449219.019531-.855469.269531-1.078125.660157l-10.585937 18.523437c-.230469.40625-.230469.910156.003906 1.3125.238281.40625.671875.65625 1.140625.65625h21.167969c.46875 0 .902343-.25 1.140624-.65625.234376-.402344.234376-.90625.003907-1.3125l-10.585938-18.523437c-.246093-.429688-.710937-.683594-1.207031-.660157zm.0625 3.96875 8.316406 14.550781h-16.628906zm0 0" fill="#424242"/></svg>

<svg xmlns="http://www.w3.org/2000/svg" xmlns:xlink="http://www.w3.org/1999/xlink" width="32px" height="32px" viewBox="0 0 32 32" version="1.1">
<g id="surface1">
     <defs>
  <style id="current-color-scheme" type="text/css">
   .ColorScheme-Text { color:#424242; } .ColorScheme-Highlight { color:#eeeeee; }
  </style>
 </defs>
<path style="fill:currentColor" class="ColorScheme-Text" d="M 15.8125 5.550781 C 15.363281 5.570312 14.957031 5.820312 14.734375 6.210938 L 4.148438 24.734375 C 3.917969 25.140625 3.917969 25.644531 4.152344 26.046875 C 4.390625 26.453125 4.824219 26.703125 5.292969 26.703125 L 26.460938 26.703125 C 26.929688 26.703125 27.363281 26.453125 27.601562 26.046875 C 27.835938 25.644531 27.835938 25.140625 27.605469 24.734375 L 17.019531 6.210938 C 16.773438 5.78125 16.308594 5.527344 15.8125 5.550781 Z M 15.875 9.519531 L 24.191406 24.070312 L 7.5625 24.070312 Z M 15.875 9.519531 "/>
</g>
</svg>
